X: 20176
T: Jocelyn's Tree
R: jig
M: 6/8
K: Dmajor
|:FDB AGE|FAd f2a|g2b ege|Bcc AGE|
FGB ABG|FAd f2a|bge cAF|GFE D2E:|
|:F2D D3|FAd fdA|g2e efd|Bcd ecA|
B2g bge|Adf afd|FAd gec|1 AGE D2E:|2 AGE D2B||
|:ABA f3|abg afd|BGE A3|ceA GEA|
d2g eff|abg afd|Bge c3|1 AGE D2B:|2 AGE D3||

